!!!COM: Palestrina, Giovanni Perluigi da
!!!OPR: Missa Octavi toni
!!!OMD: Credo
!!!OTL: Et vitam
**kern	**kern	**kern	**kern	**kern	**kern
*Ibass	*Itenor	*Itenor	*Icalto	*Icant	*Icant
!Bassus	!Tenor 2	!Tenor 1	!Altus	!Cantus 2	!Cantus 1
*clefF4	*clefGv2	*clefGv2	*clefG2	*clefG2	*clefG2
*k[]	*k[]	*k[]	*k[]	*k[]	*k[]
*G:mix	*G:mix	*G:mix	*G:mix	*G:mix	*G:mix
*M4/2	*M4/2	*M4/2	*M4/2	*M4/2	*M4/2
=195	=195	=195	=195	=195	=195
0C	0E	0c	0e	0g	1r
.	.	.	.	.	[1cc
=196	=196	=196	=196	=196	=196
0GG	1G	1d	0d	0g	2cc]
.	.	.	.	.	4b-
.	.	.	.	.	4a
.	[1D	1G	.	.	1b-
=197	=197	=197	=197	=197	=197
1D	1D]	1A	1d	1f	2a
.	.	.	.	.	2d
1BB-	1D	1B-	1d	1f	1dd
=198	=198	=198	=198	=198	=198
0C	1E	1G	1g	0e	1.cc
.	1C	2G	1g	.	.
.	.	[2c	.	.	2g
=199	=199	=199	=199	=199	=199
1GG	1.D	2c]	2r	0d	2g
.	.	2B	1g	.	2g
1D	.	2.A	.	.	1a
.	2D	.	2f	.	.
.	.	4B	.	.	.
=200	=200	=200	=200	=200	=200
1C	1E	2c	1e	1.g	2r
.	.	1G	.	.	1cc
1GG	1G	.	1d	.	.
.	.	[2d	.	2g	2b
=201	=201	=201	=201	=201	=201
0D	0A	2d]	0d	0f#	0a
.	.	4c	.	.	.
.	.	4B	.	.	.
.	.	2A	.	.	.
.	.	[2d	.	.	.
=202	=202	=202	=202	=202	=202
1.GG	[0G	2d]	1.B	0g	1.dd
.	.	2c	.	.	.
.	.	2B	.	.	.
2AA	.	2A	2c	.	2cc
=203	=203	=203	=203	=203	=203
1BB	1G_	2G	1d	[0g	2b
.	.	2F	.	.	2a
1C	1G_	2E	1e	.	2g
.	.	2C	.	.	[2cc
=204	=204	=204	=204	=204	=204
0GG	0G]	0D	0d	0g]	2cc]
.	.	.	.	.	4b
.	.	.	.	.	4a
.	.	.	.	.	1b
=205	=205	=205	=205	=205	=205
0C	[0G	0E	0c	[0g	0cc
=206	=206	=206	=206	=206	=206
0GG	0G]	0D	0d	0g]	0b
==	==	==	==	==	==
*-	*-	*-	*-	*-	*-
!!!CDT: 1525/^1526/-1594/2/2
!!!OCY: Italia
!!!AGN: Mass (Tenor)
!!!AST: renaissance, vocal
!!!ASW: Hymn
!!!PWK: Masses, Book 11
!!!RNB: Cadence finals: A,C
!!!YOR: Le Opere Complete, v. 28, p. 114
!!!YOO: Rome, Italy: Fratelli Scalera
!!!END: 1992//
!!!EED: John Miller
!!!YEC: Copyright 2000, John Miller
!!!YEN: United States of America
!!!YEM: Rights to all derivative electronic formats reserved.
!!!YEM: Refer to licensing agreement for further details.
!!!YEM: This file must be accompanied by the licensing agreement.
!!!YEM: A copy of the licensing agreement may be found at http://www.music-cog.ohio-state.edu/HumdrumDatabases/Palestrina/license.txt
!!!EMD: converted to Humdrum by Bret Aarden
